logo/browserling.svg

<?xml version="1.0" encoding="UTF-8" standalone="no"?>
<svg width="256px" height="229px" viewBox="0 0 256 229" version="1.1" xmlns="http://www.w3.org/2000/svg" xmlns:xlink="http://www.w3.org/1999/xlink" preserveAspectRatio="xMidYMid">
    <g>
        <path d="M130.270001,120.093 C122.537001,120.38 114.938001,120.527 107.568001,120.527 C57.1600006,120.527 17.3390006,113.69 16.7720006,98.441 C16.3310006,86.595 36.7800006,77.57 68.8670006,72.279 L68.8080006,77.29 L68.6780006,88.257 L78.6760006,92.767 C94.2830006,99.808 109.881001,103.378 125.035001,103.378 C142.065001,103.378 158.782001,98.894 174.722001,90.05 L183.104001,85.399 L183.347001,75.816 L183.533001,68.465 C215.816001,71.249 238.815001,77.891 239.228001,89.012 C239.878001,106.491 190.892001,117.84 130.270001,120.093 L130.270001,120.093 Z M85.6570006,69.985 C85.7040006,69.98 85.7460006,69.974 85.7930006,69.968 L85.9910006,53.079 C85.9300006,53.086 85.8730006,53.094 85.8120006,53.101 C85.8270006,53.093 85.8420006,53.087 85.8560006,53.079 L85.9180006,47.803 C88.8560006,26.897 107.947001,16.763 126.913001,16.763 C146.283001,16.763 165.524001,27.336 167.288001,47.803 L167.216001,50.651 L166.792001,67.396 L166.589001,75.392 C152.870001,83.004 139.016001,86.615 125.035001,86.615 C111.985001,86.615 98.8240006,83.467 85.5690006,77.488 L85.6570006,69.985 Z M214.267001,55.846 C205.607001,54.028 195.389001,52.637 183.958001,51.682 L184.045001,48.228 L184.069001,47.294 L183.989001,46.364 C181.673001,19.499 157.669001,0 126.913001,0 C96.7640006,0 73.0800006,18.698 69.3190006,45.471 L69.1690006,46.533 L69.1570006,47.606 L69.0670006,55.271 C58.8360006,56.859 49.6060006,58.794 41.6040006,61.065 C13.3720006,69.074 -0.618999404,81.859 0.0210005963,99.064 C0.990000596,125.143 35.1640006,137.289 107.568001,137.289 C115.096001,137.289 122.944001,137.14 130.893001,136.844 C163.156001,135.645 191.229001,132.051 212.075001,126.451 C241.849001,118.452 256.621001,105.646 255.980001,88.389 C255.088001,64.413 224.363001,57.965 214.267001,55.846 Z M132.361301,228.3529 C127.837301,228.3529 124.111301,224.7499 123.986301,220.2009 L122.240301,156.2929 C122.115301,151.6649 125.763301,147.8119 130.390301,147.6849 C134.988301,147.6079 138.872301,151.2069 138.998301,155.8339 L140.744301,219.7419 C140.869301,224.3699 137.222301,228.2229 132.594301,228.3499 C132.517301,228.3519 132.439301,228.3529 132.361301,228.3529 Z M185.796901,204.6083 C182.349901,204.6083 179.120901,202.4653 177.899901,199.0313 L161.136901,151.8863 C159.585901,147.5253 161.865901,142.7323 166.226901,141.1813 C170.588901,139.6343 175.381901,141.9103 176.930901,146.2713 L193.693901,193.4163 C195.244901,197.7783 192.965901,202.5703 188.603901,204.1213 C187.676901,204.4513 186.728901,204.6083 185.796901,204.6083 Z M78.2423006,207.75 C77.5743006,207.75 76.8943006,207.67 76.2163006,207.502 C71.7243006,206.387 68.9863006,201.842 70.1013006,197.348 L81.6253006,150.901 C82.7413006,146.409 87.2813006,143.67 91.7793006,144.786 C96.2713006,145.9 99.0093006,150.446 97.8943006,154.939 L86.3703006,201.386 C85.4233006,205.2 82.0033006,207.75 78.2423006,207.75 Z" fill="#5581B5"></path>
    </g>
</svg>

<svg viewBox="0 0 256 229" xmlns="http://www.w3.org/2000/svg"><path fill="#5581B5" d="M130.27 120.093c-7.74.28-15.34.43-22.71.43 -50.41 0-90.23-6.84-90.8-22.09 -.45-11.85 20-20.88 52.095-26.17l-.06 5.01 -.13 10.96 9.99 4.51c15.607 7.04 31.2 10.61 46.35 10.61 17.03 0 33.74-4.49 49.68-13.33l8.38-4.66 .24-9.59 .18-7.36c32.28 2.78 55.28 9.42 55.69 20.54 .65 17.47-48.34 28.82-108.96 31.08v0Zm-44.62-50.11c.04-.01.08-.02.13-.02l.19-16.89c-.07 0-.12.01-.18.02 .01-.01.03-.02.04-.03l.06-5.28c2.93-20.91 22.02-31.04 40.99-31.04 19.37 0 38.61 10.57 40.375 31.04l-.08 2.84 -.43 16.74 -.21 7.99c-13.72 7.61-27.58 11.22-41.554 11.22 -13.05 0-26.22-3.15-39.47-9.13l.08-7.503Zm128.61-14.14c-8.66-1.82-18.88-3.21-30.31-4.17l.08-3.46 .02-.94 -.08-.93C181.65 19.47 157.65-.03 126.89-.03c-30.15 0-53.84 18.698-57.6 45.471l-.15 1.06 -.02 1.07 -.09 7.66c-10.24 1.58-19.47 3.52-27.47 5.79C13.32 69.03-.67 81.82-.03 99.02c.96 26.07 35.14 38.22 107.54 38.22 7.52 0 15.37-.15 23.32-.45 32.26-1.2 60.33-4.8 81.18-10.4 29.774-8 44.54-20.81 43.9-38.07 -.9-23.98-31.62-30.43-41.72-32.543Zm-81.91 172.5c-4.53 0-8.25-3.61-8.38-8.16l-1.75-63.91c-.13-4.63 3.52-8.49 8.15-8.61 4.59-.08 8.482 3.52 8.6 8.14l1.74 63.9c.12 4.62-3.53 8.48-8.15 8.6 -.08 0-.16 0-.24 0Zm53.43-23.75c-3.45 0-6.68-2.15-7.9-5.58l-16.77-47.15c-1.56-4.37.72-9.16 5.09-10.71 4.36-1.55 9.15.72 10.7 5.09l16.76 47.14c1.55 4.36-.73 9.15-5.09 10.7 -.93.33-1.88.48-2.81.48Zm-107.56 3.14c-.67 0-1.35-.08-2.03-.25 -4.5-1.12-7.23-5.66-6.12-10.16l11.52-46.447c1.11-4.5 5.65-7.24 10.15-6.12 4.49 1.11 7.23 5.66 6.11 10.15l-11.53 46.44c-.95 3.81-4.37 6.36-8.13 6.36Z"/></svg>
